flaticon/user-interface/alignment-2.svg

<svg xmlns="http://www.w3.org/2000/svg" width="32" height="32" viewBox="0 0 24 24">
    <path d="M 0 0.398438 L 0 23.601562 L 24 23.601562 L 24 0.398438 Z M 23.199219 22.800781 L 0.800781 22.800781 L 0.800781 1.199219 L 23.199219 1.199219 Z M 23.199219 22.800781"/>
    <path d="M20.398438 20L20.398438 15.199219 3.601562 15.199219 3.601562 20zM6.234375 16L9.433594 19.199219 7.765625 19.199219 4.566406 16zM9.035156 16L12.234375 19.199219 10.566406 19.199219 7.367188 16zM11.835938 16L15.035156 19.199219 13.367188 19.199219 10.164062 16zM14.632812 16L17.835938 19.199219 16.164062 19.199219 12.964844 16zM18.964844 19.199219L15.765625 16 17.433594 16 19.601562 18.164062 19.601562 19.199219zM19.601562 17.035156L18.566406 16 19.601562 16zM4.398438 16.964844L6.632812 19.199219 4.398438 19.199219zM11.71875 12.480469C11.753906 12.519531 11.796875 12.546875 11.847656 12.570312 11.894531 12.589844 11.949219 12.601562 12 12.601562 12.050781 12.601562 12.105469 12.589844 12.152344 12.570312 12.203125 12.546875 12.246094 12.519531 12.28125 12.480469L15.484375 9.28125C15.640625 9.125 15.640625 8.875 15.484375 8.71875 15.328125 8.5625 15.074219 8.5625 14.917969 8.71875L12.398438 11.234375 12.398438 4.199219C12.398438 3.980469 12.222656 3.800781 12 3.800781 11.777344 3.800781 11.601562 3.980469 11.601562 4.199219L11.601562 11.234375 9.082031 8.71875C8.925781 8.5625 8.671875 8.5625 8.515625 8.71875 8.359375 8.875 8.359375 9.125 8.515625 9.28125zM11.71875 12.480469"/>
</svg>

<svg xmlns="http://www.w3.org/2000/svg" width="32" height="32" viewBox="0 0 24 24">
    <path d="M0 .398v23.204h24V.398zm23.2 22.403H.8V1.199h22.4zm0 0"/>
    <path d="M20.398 20v-4.8H3.602V20zM6.234 16l3.2 3.2H7.766l-3.2-3.2zm2.801 0l3.2 3.2h-1.669L7.367 16zm2.8 0l3.2 3.2h-1.668L10.164 16zm2.798 0l3.203 3.2h-1.672l-3.2-3.2zm4.332 3.2l-3.2-3.2h1.669l2.168 2.164V19.2zm.637-2.165L18.566 16h1.036zm-15.204-.07l2.235 2.234H4.398zm0 0M11.719 12.48a.382.382 0 0 0 .281.122.382.382 0 0 0 .281-.121l3.203-3.2a.396.396 0 0 0 0-.562.4.4 0 0 0-.566 0l-2.52 2.515V4.2a.398.398 0 1 0-.796 0v7.035L9.082 8.72a.4.4 0 0 0-.566 0 .396.396 0 0 0 0 .562zm0 0"/>
</svg>
